icons/solid/database.svg

<svg width="24" height="24" viewBox="0 0 24 24" fill="none" xmlns="http://www.w3.org/2000/svg">
<path fill-rule="evenodd" clip-rule="evenodd" d="M5.2299 3.25776C7.01386 2.46489 9.40829 2 12 2C14.5917 2 16.9861 2.46489 18.7701 3.25776C19.6608 3.65364 20.4435 4.15092 21.0171 4.75363C21.5956 5.3615 22 6.12233 22 7V8C22 8.15118 21.9189 8.42452 21.4836 8.7987C21.0517 9.17008 20.3681 9.54985 19.4364 9.88863C17.5814 10.5632 14.9523 11 12 11C9.04768 11 6.41865 10.5632 4.56357 9.88863C3.63192 9.54985 2.94833 9.17008 2.51636 8.7987C2.08114 8.42452 2 8.15118 2 8V7C2 6.12233 2.40438 5.3615 2.98287 4.75363C3.55645 4.15092 4.33918 3.65364 5.2299 3.25776ZM2 10.8843V13C2 13.1512 2.08114 13.4245 2.51636 13.7987C2.94833 14.1701 3.63192 14.5499 4.56357 14.8886C6.41865 15.5632 9.04768 16 12 16C14.9523 16 17.5814 15.5632 19.4364 14.8886C20.3681 14.5499 21.0517 14.1701 21.4836 13.7987C21.9189 13.4245 22 13.1512 22 13V10.8843C21.4513 11.2218 20.8139 11.5159 20.1199 11.7682C17.9938 12.5414 15.1228 13 12 13C8.87718 13 6.00622 12.5414 3.88008 11.7682C3.18613 11.5159 2.5487 11.2218 2 10.8843ZM22 15.8843C21.4513 16.2218 20.8139 16.5159 20.1199 16.7682C17.9938 17.5414 15.1228 18 12 18C8.87718 18 6.00622 17.5414 3.88008 16.7682C3.18613 16.5159 2.5487 16.2218 2 15.8843V17C2 17.8777 2.40438 18.6385 2.98287 19.2464C3.55645 19.8491 4.33918 20.3464 5.2299 20.7422C7.01386 21.5351 9.40829 22 12 22C14.5917 22 16.9861 21.5351 18.7701 20.7422C19.6608 20.3464 20.4435 19.8491 21.0171 19.2464C21.5956 18.6385 22 17.8777 22 17V15.8843Z" fill="currentColor"/>
</svg>

<svg width="24" height="24" fill="none" xmlns="http://www.w3.org/2000/svg"><path fill-rule="evenodd" clip-rule="evenodd" d="M5.23 3.258C7.014 2.465 9.408 2 12 2c2.592 0 4.986.465 6.77 1.258.89.396 1.674.893 2.247 1.496C21.596 5.362 22 6.122 22 7v1c0 .151-.081.425-.516.799-.432.371-1.116.75-2.048 1.09C17.581 10.563 14.952 11 12 11s-5.581-.437-7.436-1.111c-.932-.34-1.616-.719-2.048-1.09C2.081 8.425 2 8.15 2 8V7c0-.878.404-1.638.983-2.246.573-.603 1.356-1.1 2.247-1.496zM2 10.884V13c0 .151.081.425.516.799.432.371 1.116.75 2.048 1.09C6.419 15.563 9.048 16 12 16s5.581-.437 7.436-1.111c.932-.34 1.616-.719 2.048-1.09.435-.374.516-.648.516-.799v-2.116a10.37 10.37 0 01-1.88.884C17.994 12.541 15.123 13 12 13c-3.123 0-5.994-.459-8.12-1.232A10.371 10.371 0 012 10.884zm20 5a10.37 10.37 0 01-1.88.884C17.994 17.541 15.123 18 12 18c-3.123 0-5.994-.459-8.12-1.232A10.371 10.371 0 012 15.884V17c0 .878.404 1.639.983 2.246.573.603 1.356 1.1 2.247 1.496C7.014 21.535 9.408 22 12 22c2.592 0 4.986-.465 6.77-1.258.89-.396 1.674-.893 2.247-1.496.579-.607.983-1.368.983-2.246v-1.116z" fill="currentColor"/></svg>
